X:1
T:I Will Set My Ship In Order
M:3/4
L:1/8
K:G
 DD| G3/2- G/2 G2 G2| B3/2 A/2B-d d2| ee d2 B3/2 B/2| AG E2 DE| G3/2- G/2 G2 G2|\
B-A B2 dd| e3/2 e/2 d3- B| A3/2 G/2 G2||

